JetStyleTest/Assets/PiraevTest/testGive/Adanmq_Contraste_Soft.cube
TITLE "Generated by Foundry::LUT"
LUT_3D_SIZE 5
DOMAIN_MIN 0.000000 0.000000 0.000000
DOMAIN_MAX 0.903226 0.903226 0.903226
0.000000 0.000000 0.000000
0.272217 0.000000 0.000000
0.546875 0.000000 0.000000
0.762695 0.000000 0.000000
0.939453 0.000000 0.000000
0.000000 0.272217 0.000000
0.272217 0.272217 0.000000
0.546875 0.272217 0.000000
0.762695 0.272217 0.000000
0.939453 0.272217 0.000000
0.000000 0.546875 0.000000
0.272217 0.546875 0.000000
0.546875 0.546875 0.000000
0.762695 0.546875 0.000000
0.939453 0.546875 0.000000
0.000000 0.762695 0.000000
0.272217 0.762695 0.000000
0.546875 0.762695 0.000000
0.762695 0.762695 0.000000
0.939453 0.762695 0.000000
0.000000 0.939453 0.000000
0.272217 0.939453 0.000000
0.546875 0.939453 0.000000
0.762695 0.939453 0.000000
0.939453 0.939453 0.000000
0.000000 0.000000 0.271973
0.272217 0.000000 0.271973
0.546875 0.000000 0.271973
0.762695 0.000000 0.271973
0.939453 0.000000 0.271973
0.000000 0.272217 0.271973
0.272217 0.272217 0.271973
0.546875 0.272217 0.271973
0.762695 0.272217 0.271973
0.939453 0.272217 0.271973
0.000000 0.546875 0.271973
0.272217 0.546875 0.271973
0.546875 0.546875 0.271973
0.762695 0.546875 0.271973
0.939453 0.546875 0.271973
0.000000 0.762695 0.271973
0.272217 0.762695 0.271973
0.546875 0.762695 0.271973
0.762695 0.762695 0.271973
0.939453 0.762695 0.271973
0.000000 0.939453 0.271973
0.272217 0.939453 0.271973
0.546875 0.939453 0.271973
0.762695 0.939453 0.271973
0.939453 0.939453 0.271973
0.000000 0.000000 0.546387
0.272217 0.000000 0.546387
0.546875 0.000000 0.546387
0.762695 0.000000 0.546387
0.939453 0.000000 0.546387
0.000000 0.272217 0.546387
0.272217 0.272217 0.546387
0.546875 0.272217 0.546387
0.762695 0.272217 0.546387
0.939453 0.272217 0.546387
0.000000 0.546875 0.546387
0.272217 0.546875 0.546387
0.546875 0.546875 0.546387
0.762695 0.546875 0.546387
0.939453 0.546875 0.546387
0.000000 0.762695 0.546387
0.272217 0.762695 0.546387
0.546875 0.762695 0.546387
0.762695 0.762695 0.546387
0.939453 0.762695 0.546387
0.000000 0.939453 0.546387
0.272217 0.939453 0.546387
0.546875 0.939453 0.546387
0.762695 0.939453 0.546387
0.939453 0.939453 0.546387
0.000001 0.000000 0.762207
0.272217 0.000000 0.762207
0.546875 0.000000 0.762207
0.762695 0.000000 0.762207
0.939453 0.000000 0.762207
0.000001 0.272217 0.762207
0.272217 0.272217 0.762207
0.546875 0.272217 0.762207
0.762695 0.272217 0.762207
0.939453 0.272217 0.762207
0.000001 0.546875 0.762207
0.272217 0.546875 0.762207
0.546875 0.546875 0.762207
0.762695 0.546875 0.762207
0.939453 0.546875 0.762207
0.000001 0.762695 0.762207
0.272217 0.762695 0.762207
0.546875 0.762695 0.762207
0.762695 0.762695 0.762207
0.939453 0.762695 0.762207
0.000001 0.939453 0.762207
0.272217 0.939453 0.762207
0.546875 0.939453 0.762207
0.762695 0.939453 0.762207
0.939453 0.939453 0.762207
0.000001 0.000000 0.939453
0.272217 0.000000 0.939453
0.546875 0.000000 0.939453
0.762695 0.000000 0.939453
0.939453 0.000000 0.939453
0.000001 0.272217 0.939453
0.272217 0.272217 0.939453
0.546875 0.272217 0.939453
0.762695 0.272217 0.939453
0.939453 0.272217 0.939453
0.000001 0.546875 0.939453
0.272217 0.546875 0.939453
0.546875 0.546875 0.939453
0.762695 0.546875 0.939453
0.939453 0.546875 0.939453
0.000001 0.762695 0.939453
0.272217 0.762695 0.939453
0.546875 0.762695 0.939453
0.762695 0.762695 0.939453
0.939453 0.762695 0.939453
0.000001 0.939453 0.939453
0.272217 0.939453 0.939453
0.546875 0.939453 0.939453
0.762695 0.939453 0.939453
0.939453 0.939453 0.939453
