JetStyleTest/Assets/PiraevTest/testGive/Adanmq_Contraste_Soft.cube
TITLE "Generated by Foundry::LUT"
LUT_3D_SIZE 32
0.000000 0.000000 0.000000
0.024109 0.000000 0.000000
0.059845 0.000000 0.000000
0.099915 0.000000 0.000000
0.142334 0.000000 0.000000
0.185669 0.000000 0.000000
0.228638 0.000000 0.000000
0.272217 0.000000 0.000000
0.315186 0.000000 0.000000
0.356689 0.000000 0.000000
0.397217 0.000000 0.000000
0.436279 0.000000 0.000000
0.474609 0.000000 0.000000
0.511230 0.000000 0.000000
0.546875 0.000000 0.000000
0.580566 0.000000 0.000000
0.613281 0.000000 0.000000
0.645020 0.000000 0.000000
0.675781 0.000000 0.000000
0.705566 0.000000 0.000000
0.734375 0.000000 0.000000
0.762695 0.000000 0.000000
0.790039 0.000000 0.000000
0.816406 0.000000 0.000000
0.842773 0.000000 0.000000
0.868164 0.000000 0.000000
0.893066 0.000000 0.000000
0.916504 0.000000 0.000000
0.939453 0.000000 0.000000
0.961426 0.000000 0.000000
0.981934 0.000000 0.000000
1.000000 0.000000 0.000000
0.000000 0.024109 0.000000
0.024109 0.024109 0.000000
0.059845 0.024109 0.000000
0.099915 0.024109 0.000000
0.142334 0.024109 0.000000
0.185669 0.024109 0.000000
0.228638 0.024109 0.000000
0.272217 0.024109 0.000000
0.315186 0.024109 0.000000
0.356689 0.024109 0.000000
0.397217 0.024109 0.000000
0.436279 0.024109 0.000000
0.474609 0.024109 0.000000
0.511230 0.024109 0.000000
0.546875 0.024109 0.000000
0.580566 0.024109 0.000000
0.613281 0.024109 0.000000
0.645020 0.024124 0.000000
0.675781 0.024124 0.000000
0.705566 0.024124 0.000000
0.734375 0.024124 0.000000
0.762695 0.024124 0.000000
0.790039 0.024124 0.000000
0.816406 0.024124 0.000000
0.842773 0.024124 0.000000
0.868164 0.024124 0.000000
0.893066 0.024124 0.000000
0.916504 0.024124 0.000000
0.939453 0.024124 0.000000
0.961426 0.024124 0.000000
0.981934 0.024124 0.000000
1.000000 0.024124 0.000000
0.000000 0.059845 0.000000
0.024109 0.059845 0.000000
0.059845 0.059845 0.000000
0.099915 0.059845 0.000000
0.142334 0.059845 0.000000
0.185669 0.059845 0.000000
0.228638 0.059845 0.000000
0.272217 0.059845 0.000000
0.315186 0.059845 0.000000
0.356689 0.059845 0.000000
0.397217 0.059845 0.000000
0.436279 0.059845 0.000000
0.474609 0.059845 0.000000
0.511230 0.059845 0.000000
0.546875 0.059845 0.000000
0.580566 0.059845 0.000000
0.613281 0.059845 0.000000
0.645020 0.059845 0.000000
0.675781 0.059845 0.000000
0.705566 0.059845 0.000000
0.734375 0.059845 0.000000
0.762695 0.059845 0.000000
0.790039 0.059845 0.000000
0.816406 0.059845 0.000000
0.842773 0.059845 0.000000
0.868164 0.059845 0.000000
0.893066 0.059845 0.000000
0.916504 0.059845 0.000000
0.939453 0.059845 0.000000
0.961426 0.059875 0.000000
0.981934 0.059875 0.000000
1.000000 0.059875 0.000000
0.000000 0.099915 0.000000
0.024109 0.099915 0.000000
0.059845 0.099915 0.000000
0.099915 0.099915 0.000000
0.142334 0.099915 0.000000
0.185669 0.099915 0.000000
0.228638 0.099915 0.000000
0.272217 0.099915 0.000000
0.315186 0.099915 0.000000
0.356689 0.099915 0.000000
0.397217 0.099915 0.000000
0.436279 0.099915 0.000000
0.474609 0.099915 0.000000
0.511230 0.099915 0.000000
0.546875 0.099976 0.000000
0.580566 0.099976 0.000000
0.613281 0.099976 0.000000
0.645020 0.099976 0.000000
0.675781 0.099976 0.000000
0.705566 0.099976 0.000000
0.734375 0.099976 0.000000
0.762695 0.099976 0.000000
0.790039 0.099976 0.000000
0.816406 0.099976 0.000000
0.842773 0.099976 0.000000
0.868164 0.099976 0.000000
0.893066 0.099976 0.000000
0.916504 0.099976 0.000000
0.939453 0.099976 0.000000
0.961426 0.099976 0.000000
0.981934 0.099976 0.000000
1.000000 0.099976 0.000000
0.000000 0.142334 0.000000
0.024109 0.142334 0.000000
0.059845 0.142334 0.000000
0.099915 0.142334 0.000000
0.142334 0.142456 0.000000
0.185669 0.142456 0.000000
0.228638 0.142456 0.000000
0.272217 0.142456 0.000000
0.315186 0.142456 0.000000
0.356689 0.142456 0.000000
0.397217 0.142456 0.000000
0.436279 0.142456 0.000000
0.474609 0.142456 0.000000
0.511230 0.142456 0.000000
0.546875 0.142456 0.000000
0.580566 0.142456 0.000000
0.613281 0.142456 0.000000
0.645020 0.142456 0.000000
0.675781 0.142456 0.000000
0.705566 0.142456 0.000000
0.734375 0.142456 0.000000
0.762695 0.142456 0.000000
0.790039 0.142456 0.000000
0.816406 0.142456 0.000000
0.842773 0.142456 0.000000
0.868164 0.142456 0.000000
0.893066 0.142456 0.000000
0.916504 0.142456 0.000000
0.939453 0.142456 0.000000
0.961426 0.142456 0.000000
0.981934 0.142456 0.000000
1.000000 0.142456 0.000000
0.000000 0.185669 0.000000
0.024109 0.185669 0.000000
0.059845 0.185669 0.000000
0.099915 0.185669 0.000000
0.142334 0.185669 0.000000
0.185669 0.185669 0.000000
0.228638 0.185669 0.000000
0.272217 0.185669 0.000000
0.315186 0.185669 0.000000
0.356689 0.185669 0.000000
0.397217 0.185669 0.000000
0.436279 0.185669 0.000000
0.474609 0.185669 0.000000
0.511230 0.185669 0.000000
0.546875 0.185669 0.000000
0.580566 0.185669 0.000000
0.613281 0.185669 0.000000
0.645020 0.185669 0.000000
0.675781 0.185669 0.000000
0.705566 0.185669 0.000000
0.734375 0.185669 0.000000
0.762695 0.185669 0.000000
0.790039 0.185669 0.000000
0.816406 0.185669 0.000000
0.842773 0.185669 0.000000
0.868164 0.185669 0.000000
0.893066 0.185669 0.000000
0.916504 0.185669 0.000000
0.939453 0.185669 0.000000
0.961426 0.185669 0.000000
0.981934 0.185669 0.000000
1.000000 0.185669 0.000000
0.000000 0.228638 0.000000
0.024109 0.228638 0.000000
0.059845 0.228760 0.000000
0.099915 0.228760 0.000000
0.142334 0.228760 0.000000
0.185669 0.228760 0.000000
0.228638 0.228760 0.000000
0.272217 0.228760 0.000000
0.315186 0.228760 0.000000
0.356689 0.228760 0.000000
0.397217 0.228760 0.000000
0.436279 0.228760 0.000000
0.474609 0.228760 0.000000
0.511230 0.228760 0.000000
0.546875 0.228760 0.000000
0.580566 0.228760 0.000000
0.613281 0.228760 0.000000
0.645020 0.228760 0.000000
0.675781 0.228760 0.000000
0.705566 0.228760 0.000000
0.734375 0.228760 0.000000
0.762695 0.228760 0.000000
0.790039 0.228760 0.000000
0.816406 0.228760 0.000000
0.842773 0.228760 0.000000
0.868164 0.228760 0.000000
0.893066 0.228760 0.000000
0.916504 0.228760 0.000000
0.939453 0.228760 0.000000
0.961426 0.228760 0.000000
0.981934 0.228760 0.000000
1.000000 0.228760 0.000000
0.000000 0.272217 0.000000
0.024109 0.272217 0.000000
0.059845 0.272217 0.000000
0.099915 0.272217 0.000000
0.142334 0.272217 0.000000
0.185669 0.272217 0.000000
0.228638 0.272217 0.000000
0.272217 0.272217 0.000000
0.315186 0.272217 0.000000
0.356689 0.272217 0.000000
0.397217 0.272217 0.000000
0.436279 0.272217 0.000000
0.474609 0.272217 0.000000
0.511230 0.272217 0.000000
0.546875 0.272217 0.000000
0.580566 0.272217 0.000000
0.613281 0.272217 0.000000
0.645020 0.272217 0.000000
0.675781 0.272217 0.000000
0.705566 0.272217 0.000000
0.734375 0.272217 0.000000
0.762695 0.272217 0.000000
0.790039 0.272217 0.000000
0.816406 0.272217 0.000000
0.842773 0.272217 0.000000
0.868164 0.272217 0.000000
0.893066 0.272217 0.000000
0.916504 0.272217 0.000000
0.939453 0.272217 0.000000
0.961426 0.272217 0.000000
0.981934 0.272217 0.000000
1.000000 0.272217 0.000000
0.000000 0.315186 0.000000
0.024109 0.315186 0.000000
0.059845 0.315186 0.000000
0.099915 0.315186 0.000000
0.142334 0.315186 0.000000
0.185669 0.315186 0.000000
0.228638 0.315186 0.000000
0.272217 0.315186 0.000000
0.315186 0.315186 0.000000
0.356689 0.315186 0.000000
0.397217 0.315186 0.000000
0.436279 0.315186 0.000000
0.474609 0.315186 0.000000
0.511230 0.315186 0.000000
0.546875 0.315186 0.000000
0.580566 0.315186 0.000000
0.613281 0.315186 0.000000
0.645020 0.315186 0.000000
0.675781 0.315186 0.000000
0.705566 0.315186 0.000000
0.734375 0.315186 0.000000
0.762695 0.315186 0.000000
0.790039 0.315186 0.000000
0.816406 0.315186 0.000000
0.842773 0.315186 0.000000
0.868164 0.315186 0.000000
0.893066 0.315186 0.000000
0.916504 0.315186 0.000000
0.939453 0.315186 0.000000
0.961426 0.315186 0.000000
0.981934 0.315186 0.000000
1.000000 0.315186 0.000000
0.000000 0.356934 0.000000
0.024109 0.356934 0.000000
0.059845 0.356934 0.000000
0.099915 0.356934 0.000000
0.142334 0.356934 0.000000
0.185669 0.356934 0.000000
0.228638 0.356934 0.000000
0.272217 0.356934 0.000000
0.315186 0.356934 0.000000
0.356689 0.356934 0.000000
0.397217 0.356934 0.000000
0.436279 0.356934 0.000000
0.474609 0.356934 0.000000
0.511230 0.356934 0.000000
0.546875 0.356934 0.000000
0.580566 0.356934 0.000000
0.613281 0.356934 0.000000
0.645020 0.356934 0.000000
0.675781 0.356934 0.000000
0.705566 0.356934 0.000000
0.734375 0.356934 0.000000
0.762695 0.356934 0.000000
0.790039 0.356934 0.000000
0.816406 0.356934 0.000000
0.842773 0.356934 0.000000
0.868164 0.356934 0.000000
0.893066 0.356934 0.000000
0.916504 0.356934 0.000000
0.939453 0.356934 0.000000
0.961426 0.356934 0.000000
0.981934 0.356934 0.000000
1.000000 0.356934 0.000000
0.000000 0.397217 0.000000
0.024109 0.397217 0.000000
0.059845 0.397217 0.000000
0.099915 0.397217 0.000000
0.142334 0.397217 0.000000
0.185669 0.397217 0.000000
0.228638 0.397217 0.000000
0.272217 0.397217 0.000000
0.315186 0.397217 0.000000
0.356689 0.397217 0.000000
0.397217 0.397217 0.000000
0.436279 0.397217 0.000000
0.474609 0.397217 0.000000
0.511230 0.397217 0.000000
0.546875 0.397217 0.000000
0.580566 0.397217 0.000000
0.613281 0.397217 0.000000
0.645020 0.397217 0.000000
0.675781 0.397217 0.000000
0.705566 0.397217 0.000000
0.734375 0.397217 0.000000
0.762695 0.397217 0.000000
0.790039 0.397217 0.000000
0.816406 0.397217 0.000000
0.842773 0.397217 0.000000
0.868164 0.397217 0.000000
0.893066 0.397217 0.000000
0.916504 0.397217 0.000000
0.939453 0.397217 0.000000
0.961426 0.397217 0.000000
0.981934 0.397217 0.000000
1.000000 0.397217 0.000000
0.000000 0.436279 0.000000
0.024109 0.436279 0.000000
0.059845 0.436279 0.000000
0.099915 0.436279 0.000000
0.142334 0.436279 0.000000
0.185669 0.436279 0.000000
0.228638 0.436279 0.000000
0.272217 0.436279 0.000000
0.315186 0.436279 0.000000
0.356689 0.436279 0.000000
0.397217 0.436279 0.000000
0.436279 0.436279 0.000000
0.474609 0.436279 0.000000
0.511230 0.436279 0.000000
0.546875 0.436279 0.000000
0.580566 0.436279 0.000000
0.613281 0.436279 0.000000
0.645020 0.436279 0.000000
0.675781 0.436279 0.000000
0.705566 0.436279 0.000000
0.734375 0.436279 0.000000
0.762695 0.436279 0.000000
0.790039 0.436279 0.000000
0.816406 0.436279 0.000000
0.842773 0.436279 0.000000
0.868164 0.436279 0.000000
0.893066 0.436279 0.000000
0.916504 0.436279 0.000000
0.939453 0.436279 0.000000
0.961426 0.436279 0.000000
0.981934 0.436279 0.000000
1.000000 0.436279 0.000000
0.000000 0.474609 0.000000
0.024109 0.474609 0.000000
0.059845 0.474609 0.000000
0.099915 0.474609 0.000000
0.142334 0.474609 0.000000
0.185669 0.474609 0.000000
0.228638 0.474609 0.000000
0.272217 0.474609 0.000000
0.315186 0.474609 0.000000
0.356689 0.474609 0.000000
0.397217 0.474609 0.000000
0.436279 0.474609 0.000000
0.474609 0.474609 0.000000
0.511230 0.474609 0.000000
0.546875 0.474609 0.000000
0.580566 0.474609 0.000000
0.613281 0.474609 0.000000
0.645020 0.474609 0.000000
0.675781 0.474609 0.000000
0.705566 0.474609 0.000000
0.734375 0.474609 0.000000
0.762695 0.474609 0.000000
0.790039 0.474609 0.000000
0.816406 0.474609 0.000000
0.842773 0.474609 0.000000
0.868164 0.474609 0.000000
0.893066 0.474609 0.000000
0.916504 0.474609 0.000000
0.939453 0.474609 0.000000
0.961426 0.474609 0.000000
0.981934 0.474609 0.000000
1.000000 0.474609 0.000000
0.000000 0.511230 0.000000
0.024109 0.511230 0.000000
0.059845 0.511230 0.000000
0.099915 0.511230 0.000000
0.142334 0.511230 0.000000
0.185669 0.511230 0.000000
0.228638 0.511230 0.000000
0.272217 0.511230 0.000000
0.315186 0.511230 0.000000
0.356689 0.511230 0.000000
0.397217 0.511230 0.000000
0.436279 0.511230 0.000000
0.474609 0.511230 0.000000
0.511230 0.511230 0.000000
0.546875 0.511230 0.000000
0.580566 0.511230 0.000000
0.613281 0.511230 0.000000
0.645020 0.511230 0.000000
0.675781 0.511230 0.000000
0.705566 0.511230 0.000000
0.734375 0.511230 0.000000
0.762695 0.511230 0.000000
0.790039 0.511230 0.000000
0.816406 0.511230 0.000000
0.842773 0.511230 0.000000
0.868164 0.511230 0.000000
0.893066 0.511230 0.000000
0.916504 0.511230 0.000000
0.939453 0.511230 0.000000
0.961426 0.511230 0.000000
0.981934 0.511230 0.000000
1.000000 0.511230 0.000000
0.000000 0.546875 0.000000
0.024109 0.546875 0.000000
0.059845 0.546875 0.000000
0.099915 0.546875 0.000000
0.142334 0.546875 0.000000
0.185669 0.546875 0.000000
0.228638 0.546875 0.000000
0.272217 0.546875 0.000000
0.315186 0.546875 0.000000
0.356689 0.546875 0.000000
0.397217 0.546875 0.000000
0.436279 0.546875 0.000000
0.474609 0.546875 0.000000
0.511230 0.546875 0.000000
0.546875 0.546875 0.000000
0.580566 0.546875 0.000000
0.613281 0.546875 0.000000
0.645020 0.546875 0.000000
0.675781 0.546875 0.000000
0.705566 0.546875 0.000000
0.734375 0.546875 0.000000
0.762695 0.546875 0.000000
0.790039 0.546875 0.000000
0.816406 0.546875 0.000000
0.842773 0.546875 0.000000
0.868164 0.546875 0.000000
0.893066 0.546875 0.000000
0.916504 0.546875 0.000000
0.939453 0.546875 0.000000
0.961426 0.546875 0.000000
0.981934 0.546875 0.000000
1.000000 0.546875 0.000000
0.000000 0.580566 0.000000
0.024109 0.580566 0.000000
0.059845 0.580566 0.000000
0.099915 0.580566 0.000000
0.142334 0.580566 0.000000
0.185669 0.580566 0.000000
0.228638 0.580566 0.000000
0.272217 0.580566 0.000000
0.315186 0.580566 0.000000
0.356689 0.580566 0.000000
0.397217 0.580566 0.000000
0.436279 0.580566 0.000000
0.474609 0.580566 0.000000
0.511230 0.580566 0.000000
0.546875 0.580566 0.000000
0.580566 0.580566 0.000000
0.613281 0.580566 0.000000
0.645020 0.580566 0.000000
0.675781 0.580566 0.000000
0.705566 0.580566 0.000000
0.734375 0.580566 0.000000
0.762695 0.580566 0.000000
0.790039 0.580566 0.000000
0.816406 0.580566 0.000000
0.842773 0.580566 0.000000
0.868164 0.580566 0.000000
0.893066 0.580566 0.000000
0.916504 0.580566 0.000000
0.939453 0.580566 0.000000
0.961426 0.580566 0.000000
0.981934 0.580566 0.000000
1.000000 0.580566 0.000000
0.000000 0.613281 0.000000
0.024109 0.613281 0.000000
0.059845 0.613281 0.000000
0.099915 0.613281 0.000000
0.142334 0.613281 0.000000
0.185669 0.613281 0.000000
0.228638 0.613281 0.000000
0.272217 0.613281 0.000000
0.315186 0.613281 0.000000
0.356689 0.613281 0.000000
0.397217 0.613281 0.000000
0.436279 0.613281 0.000000
0.474609 0.613281 0.000000
0.511230 0.613281 0.000000
0.546875 0.613281 0.000000
0.580566 0.613770 0.000000
0.613281 0.613770 0.000000
0.645020 0.613770 0.000000
0.675781 0.613770 0.000000
0.705566 0.613770 0.000000
0.734375 0.613770 0.000000
0.762695 0.613770 0.000000
0.790039 0.613770 0.000000
0.816406 0.613770 0.000000
0.842773 0.613770 0.000000
0.868164 0.613770 0.000000
0.893066 0.613770 0.000000
0.916504 0.613770 0.000000
0.939453 0.613770 0.000000
0.961426 0.613770 0.000000
0.981934 0.613770 0.000000
1.000000 0.613770 0.000000
0.000000 0.645020 0.000000
0.024109 0.645020 0.000000
0.059845 0.645020 0.000000
0.099915 0.645020 0.000000
0.142334 0.645020 0.000000
0.185669 0.645020 0.000000
0.228638 0.645020 0.000000
0.272217 0.645020 0.000000
0.315186 0.645020 0.000000
0.356689 0.645020 0.000000
0.397217 0.645020 0.000000
0.436279 0.645020 0.000000
0.474609 0.645020 0.000000
0.511230 0.645020 0.000000
0.546875 0.645020 0.000000
0.580566 0.645020 0.000000
0.613281 0.645020 0.000000
0.645020 0.645020 0.000000
0.675781 0.645020 0.000000
0.705566 0.645020 0.000000
0.734375 0.645020 0.000000
0.762695 0.645020 0.000000
0.790039 0.645020 0.000000
0.816406 0.645020 0.000000
0.842773 0.645020 0.000000
0.868164 0.645020 0.000000
0.893066 0.645020 0.000000
0.916504 0.645020 0.000000
0.939453 0.645020 0.000000
0.961426 0.645020 0.000000
0.981934 0.645020 0.000000
1.000000 0.645020 0.000000
0.000000 0.675781 0.000000
0.024109 0.675781 0.000000
0.059845 0.675781 0.000000
0.099915 0.675781 0.000000
0.142334 0.675781 0.000000
0.185669 0.675781 0.000000
0.228638 0.675781 0.000000
0.272217 0.675781 0.000000
0.315186 0.675781 0.000000
0.356689 0.675781 0.000000
0.397217 0.675781 0.000000
0.436279 0.675781 0.000000
0.474609 0.675781 0.000000
0.511230 0.675781 0.000000
0.546875 0.675781 0.000000
0.580566 0.675781 0.000000
0.613281 0.675781 0.000000
0.645020 0.675781 0.000000
0.675781 0.675781 0.000000
0.705566 0.675781 0.000000
0.734375 0.675781 0.000000
0.762695 0.675781 0.000000
0.790039 0.675781 0.000000
0.816406 0.675781 0.000000
0.842773 0.675781 0.000000
0.868164 0.675781 0.000000
0.893066 0.675781 0.000000
0.916504 0.675781 0.000000
0.939453 0.675781 0.000000
0.961426 0.675781 0.000000
0.981934 0.675781 0.000000
1.000000 0.675781 0.000000
0.000000 0.705566 0.000000
0.024109 0.705566 0.000000
0.059845 0.705566 0.000000
0.099915 0.705566 0.000000
0.142334 0.705566 0.000000
0.185669 0.705566 0.000000
0.228638 0.705566 0.000000
0.272217 0.705566 0.000000
0.315186 0.705566 0.000000
0.356689 0.705566 0.000000
0.397217 0.705566 0.000000
0.436279 0.705566 0.000000
0.474609 0.705566 0.000000
0.511230 0.705566 0.000000
0.546875 0.705566 0.000000
0.580566 0.705566 0.000000
0.613281 0.705566 0.000000
0.645020 0.705566 0.000000
0.675781 0.705566 0.000000
0.705566 0.705566 0.000000
0.734375 0.705566 0.000000
0.762695 0.705566 0.000000
0.790039 0.705566 0.000000
0.816406 0.705566 0.000000
0.842773 0.705566 0.000000
0.868164 0.705566 0.000000
0.893066 0.705566 0.000000
0.916504 0.705566 0.000000
0.939453 0.705566 0.000000
0.961426 0.705566 0.000000
0.981934 0.705566 0.000000
1.000000 0.705566 0.000000
0.000000 0.734375 0.000000
0.024109 0.734375 0.000000
0.059845 0.734375 0.000000
0.099915 0.734375 0.000000
0.142334 0.734375 0.000000
0.185669 0.734375 0.000000
0.228638 0.734375 0.000000
0.272217 0.734375 0.000000
0.315186 0.734375 0.000000
0.356689 0.734375 0.000000
0.397217 0.734375 0.000000
0.436279 0.734375 0.000000
0.474609 0.734375 0.000000
0.511230 0.734375 0.000000
0.546875 0.734375 0.000000
0.580566 0.734375 0.000000
0.613281 0.734375 0.000000
0.645020 0.734375 0.000000
0.675781 0.734375 0.000000
0.705566 0.734375 0.000000
0.734375 0.734375 0.000000
0.762695 0.734375 0.000000
0.790039 0.734375 0.000000
0.816406 0.734375 0.000000
0.842773 0.734375 0.000000
0.868164 0.734375 0.000000
0.893066 0.734375 0.000000
0.916504 0.734375 0.000000
0.939453 0.734375 0.000000
0.961426 0.734375 0.000000
0.981934 0.734375 0.000000
1.000000 0.734375 0.000000
0.000000 0.762695 0.000000
0.024109 0.762695 0.000000
0.059845 0.762695 0.000000
0.099915 0.762695 0.000000
0.142334 0.762695 0.000000
0.185669 0.762695 0.000000
0.228638 0.762695 0.000000
0.272217 0.762695 0.000000
0.315186 0.762695 0.000000
0.356689 0.762695 0.000000
0.397217 0.762695 0.000000
0.436279 0.762695 0.000000
0.474609 0.762695 0.000000
0.511230 0.762695 0.000000
0.546875 0.762695 0.000000
0.580566 0.762695 0.000000
0.613281 0.762695 0.000000
0.645020 0.762695 0.000000
0.675781 0.762695 0.000000
0.705566 0.762695 0.000000
0.734375 0.762695 0.000000
0.762695 0.762695 0.000000
0.790039 0.762695 0.000000
0.816406 0.762695 0.000000
0.842773 0.762695 0.000000
0.868164 0.762695 0.000000
0.893066 0.762695 0.000000
0.916504 0.762695 0.000000
0.939453 0.762695 0.000000
0.961426 0.762695 0.000000
0.981934 0.762695 0.000000
1.000000 0.762695 0.000000
0.000000 0.790039 0.000000
0.024109 0.790039 0.000000
0.059845 0.790039 0.000000
0.099915 0.790039 0.000000
0.142334 0.790039 0.000000
0.185669 0.790039 0.000000
0.228638 0.790039 0.000000
0.272217 0.790039 0.000000
0.315186 0.790039 0.000000
0.356689 0.790039 0.000000
0.397217 0.790039 0.000000
0.436279 0.790039 0.000000
0.474609 0.790039 0.000000
0.511230 0.790039 0.000000
0.546875 0.790039 0.000000
0.580566 0.790039 0.000000
0.613281 0.790039 0.000000
0.645020 0.790039 0.000000
0.675781 0.790039 0.000000
0.705566 0.790039 0.000000
0.734375 0.790039 0.000000
0.762695 0.790039 0.000000
0.790039 0.790039 0.000000
0.816406 0.790039 0.000000
0.842773 0.790039 0.000000
0.868164 0.790039 0.000000
0.893066 0.790039 0.000000
0.916504 0.790039 0.000000
0.939453 0.790039 0.000000
0.961426 0.790039 0.000000
0.981934 0.790039 0.000000
1.000000 0.790039 0.000000
0.000000 0.816406 0.000000
0.024109 0.816406 0.000000
0.059845 0.816406 0.000000
0.099915 0.816406 0.000000
0.142334 0.816406 0.000000
0.185669 0.816406 0.000000
0.228638 0.816406 0.000000
0.272217 0.816406 0.000000
0.315186 0.816406 0.000000
0.356689 0.816406 0.000000
0.397217 0.816406 0.000000
0.436279 0.816406 0.000000
0.474609 0.816406 0.000000
0.511230 0.816406 0.000000
0.546875 0.816406 0.000000
0.580566 0.816406 0.000000
0.613281 0.816406 0.000000
0.645020 0.816406 0.000000
0.675781 0.816406 0.000000
0.705566 0.816406 0.000000
0.734375 0.816406 0.000000
0.762695 0.816406 0.000000
0.790039 0.816406 0.000000
0.816406 0.816406 0.000000
0.842773 0.816406 0.000000
0.868164 0.816406 0.000000
0.893066 0.816406 0.000000
0.916504 0.816406 0.000000
0.939453 0.816406 0.000000
0.961426 0.816406 0.000000
0.981934 0.816406 0.000000
1.000000 0.816406 0.000000
0.000000 0.842773 0.000000
0.024109 0.842773 0.000000
0.059845 0.842773 0.000000
0.099915 0.842773 0.000000
0.142334 0.842773 0.000000
0.185669 0.842773 0.000000
0.228638 0.842773 0.000000
0.272217 0.842773 0.000000
0.315186 0.842773 0.000000
0.356689 0.842773 0.000000
0.397217 0.842773 0.000000
0.436279 0.842773 0.000000
0.474609 0.842773 0.000000
0.511230 0.842773 0.000000
0.546875 0.842773 0.000000
0.580566 0.842773 0.000000
0.613281 0.842773 0.000000
0.645020 0.842773 0.000000
0.675781 0.842773 0.000000
0.705566 0.842773 0.000000
0.734375 0.842773 0.000000
0.762695 0.842773 0.000000
0.790039 0.842773 0.000000
0.816406 0.842773 0.000000
0.842773 0.842773 0.000000
0.868164 0.842773 0.000000
0.893066 0.842773 0.000000
0.916504 0.842773 0.000000
0.939453 0.842773 0.000000
0.961426 0.842773 0.000000
0.981934 0.842773 0.000000
1.000000 0.842773 0.000000
0.000000 0.868164 0.000000
0.024109 0.868164 0.000000
0.059845 0.868164 0.000000
0.099915 0.868164 0.000000
0.142334 0.868164 0.000000
0.185669 0.868164 0.000000
0.228638 0.868164 0.000000
0.272217 0.868164 0.000000
0.315186 0.868164 0.000000
0.356689 0.868164 0.000000
0.397217 0.868164 0.000000
0.436279 0.868164 0.000000
0.474609 0.868164 0.000000
0.511230 0.868164 0.000000
0.546875 0.868164 0.000000
0.580566 0.868164 0.000000
0.613281 0.868164 0.000000
0.645020 0.868164 0.000000
0.675781 0.868164 0.000000
0.705566 0.868164 0.000000
0.734375 0.868164 0.000000
0.762695 0.868164 0.000000
0.790039 0.868164 0.000000
0.816406 0.868164 0.000000
0.842773 0.868164 0.000000
0.868164 0.868164 0.000000
0.893066 0.868164 0.000000
0.916504 0.868164 0.000000
0.939453 0.868164 0.000000
0.961426 0.868164 0.000000
0.981934 0.868164 0.000000
1.000000 0.868164 0.000000
0.000000 0.893066 0.000000
0.024109 0.893066 0.000000
0.059845 0.893066 0.000000
0.099915 0.893066 0.000000
0.142334 0.893066 0.000000
0.185669 0.893066 0.000000
0.228638 0.893066 0.000000
0.272217 0.893066 0.000000
0.315186 0.893066 0.000000
0.356689 0.893066 0.000000
0.397217 0.893066 0.000000
0.436279 0.893066 0.000000
0.474609 0.893066 0.000000
0.511230 0.893066 0.000000
0.546875 0.893066 0.000000
0.580566 0.893066 0.000000
0.613281 0.893066 0.000000
0.645020 0.893066 0.000000
0.675781 0.893066 0.000000
0.705566 0.893066 0.000000
0.734375 0.893066 0.000000
0.762695 0.893066 0.000000
0.790039 0.893066 0.000000
0.816406 0.893066 0.000000
0.842773 0.893066 0.000000
0.868164 0.893066 0.000000
0.893066 0.893066 0.000000
0.916504 0.893066 0.000000
0.939453 0.893066 0.000000
0.961426 0.893066 0.000000
0.981934 0.893066 0.000000
1.000000 0.893066 0.000000
0.000000 0.916504 0.000000
0.024109 0.916504 0.000000
0.059845 0.916504 0.000000
0.099915 0.916504 0.000000
0.142334 0.916504 0.000000
0.185669 0.916504 0.000000
0.228638 0.916504 0.000000
0.272217 0.916504 0.000000
0.315186 0.916504 0.000000
0.356689 0.916504 0.000000
0.397217 0.916504 0.000000
0.436279 0.916504 0.000000
0.474609 0.916504 0.000000
0.511230 0.916504 0.000000
0.546875 0.916504 0.000000
0.580566 0.916504 0.000000
0.613281 0.916504 0.000000
0.645020 0.916504 0.000000
0.675781 0.916504 0.000000
0.705566 0.916504 0.000000
0.734375 0.916504 0.000000
0.762695 0.916504 0.000000
0.790039 0.916504 0.000000
