JetStyleTest/Assets/PiraevTest/testGive/Adanmq_Contraste_Soft.cube
TITLE "Generated by Foundry::LUT"
LUT_3D_SIZE 8
DOMAIN_MIN 0.000000 0.000000 0.000000
DOMAIN_MAX 0.903226 0.903226 0.903226
0.000000 0.000000 0.000000
0.142334 0.000000 0.000000
0.315186 0.000000 0.000000
0.474609 0.000000 0.000000
0.613281 0.000000 0.000000
0.734375 0.000000 0.000000
0.842773 0.000000 0.000000
0.939453 0.000000 0.000000
0.000000 0.142334 0.000000
0.142334 0.142456 0.000000
0.315186 0.142456 0.000000
0.474609 0.142456 0.000000
0.613281 0.142456 0.000000
0.734375 0.142456 0.000000
0.842773 0.142456 0.000000
0.939453 0.142456 0.000000
0.000000 0.315186 0.000000
0.142334 0.315186 0.000000
0.315186 0.315186 0.000000
0.474609 0.315186 0.000000
0.613281 0.315186 0.000000
0.734375 0.315186 0.000000
0.842773 0.315186 0.000000
0.939453 0.315186 0.000000
0.000000 0.474609 0.000000
0.142334 0.474609 0.000000
0.315186 0.474609 0.000000
0.474609 0.474609 0.000000
0.613281 0.474609 0.000000
0.734375 0.474609 0.000000
0.842773 0.474609 0.000000
0.939453 0.474609 0.000000
0.000000 0.613281 0.000000
0.142334 0.613281 0.000000
0.315186 0.613281 0.000000
0.474609 0.613281 0.000000
0.613281 0.613770 0.000000
0.734375 0.613770 0.000000
0.842773 0.613770 0.000000
0.939453 0.613770 0.000000
0.000000 0.734375 0.000000
0.142334 0.734375 0.000000
0.315186 0.734375 0.000000
0.474609 0.734375 0.000000
0.613281 0.734375 0.000000
0.734375 0.734375 0.000000
0.842773 0.734375 0.000000
0.939453 0.734375 0.000000
0.000000 0.842773 0.000000
0.142334 0.842773 0.000000
0.315186 0.842773 0.000000
0.474609 0.842773 0.000000
0.613281 0.842773 0.000000
0.734375 0.842773 0.000000
0.842773 0.842773 0.000000
0.939453 0.842773 0.000000
0.000000 0.939453 0.000000
0.142334 0.939453 0.000000
0.315186 0.939453 0.000000
0.474609 0.939453 0.000000
0.613281 0.939453 0.000000
0.734375 0.939453 0.000000
0.842773 0.939453 0.000000
0.939453 0.939453 0.000000
0.000000 0.000000 0.142334
0.142456 0.000000 0.142334
0.315186 0.000000 0.142334
0.474609 0.000000 0.142334
0.613281 0.000000 0.142334
0.734375 0.000000 0.142334
0.842773 0.000000 0.142334
0.939453 0.000000 0.142334
0.000000 0.142334 0.142334
0.142456 0.142334 0.142334
0.315186 0.142456 0.142334
0.474609 0.142456 0.142334
0.613281 0.142456 0.142334
0.734375 0.142456 0.142334
0.842773 0.142456 0.142334
0.939453 0.142456 0.142334
0.000000 0.315186 0.142334
0.142456 0.315186 0.142334
0.315186 0.315186 0.142334
0.474609 0.315186 0.142334
0.613281 0.315186 0.142334
0.734375 0.315186 0.142334
0.842773 0.315186 0.142334
0.939453 0.315186 0.142334
0.000000 0.474609 0.142334
0.142456 0.474609 0.142334
0.315186 0.474609 0.142334
0.474609 0.474609 0.142334
0.613281 0.474609 0.142334
0.734375 0.474609 0.142334
0.842773 0.474609 0.142334
0.939453 0.474609 0.142334
0.000000 0.613281 0.142334
0.142456 0.613281 0.142334
0.315186 0.613281 0.142334
0.474609 0.613281 0.142334
0.613281 0.613281 0.142334
0.734375 0.613770 0.142334
0.842773 0.613770 0.142334
0.939453 0.613770 0.142334
0.000000 0.734375 0.142334
0.142456 0.734375 0.142334
0.315186 0.734375 0.142334
0.474609 0.734375 0.142334
0.613281 0.734375 0.142334
0.734375 0.734375 0.142334
0.842773 0.734375 0.142334
0.939453 0.734375 0.142334
0.000000 0.842773 0.142334
0.142456 0.842773 0.142334
0.315186 0.842773 0.142334
0.474609 0.842773 0.142334
0.613281 0.842773 0.142334
0.734375 0.842773 0.142334
0.842773 0.842773 0.142334
0.939453 0.842773 0.142334
0.000000 0.939453 0.142334
0.142456 0.939453 0.142334
0.315186 0.939453 0.142334
0.474609 0.939453 0.142334
0.613281 0.939453 0.142334
0.734375 0.939453 0.142334
0.842773 0.939453 0.142334
0.939453 0.939453 0.142334
0.000000 0.000000 0.315186
0.142456 0.000000 0.315186
0.315186 0.000000 0.315186
0.474609 0.000000 0.315186
0.613770 0.000000 0.315186
0.734375 0.000000 0.315186
0.842773 0.000000 0.315186
0.939453 0.000000 0.315186
0.000000 0.142334 0.315186
0.142456 0.142334 0.315186
0.315186 0.142334 0.315186
0.474609 0.142456 0.315186
0.613770 0.142456 0.315186
0.734375 0.142456 0.315186
0.842773 0.142456 0.315186
0.939453 0.142456 0.315186
0.000000 0.315186 0.315186
0.142456 0.315186 0.315186
0.315186 0.315186 0.315186
0.474609 0.315186 0.315186
0.613770 0.315186 0.315186
0.734375 0.315186 0.315186
0.842773 0.315186 0.315186
0.939453 0.315186 0.315186
0.000000 0.474609 0.315186
0.142456 0.474609 0.315186
0.315186 0.474609 0.315186
0.474609 0.474609 0.315186
0.613770 0.474609 0.315186
0.734375 0.474609 0.315186
0.842773 0.474609 0.315186
0.939453 0.474609 0.315186
0.000000 0.613281 0.315186
0.142456 0.613281 0.315186
0.315186 0.613281 0.315186
0.474609 0.613281 0.315186
0.613770 0.613281 0.315186
0.734375 0.613281 0.315186
0.842773 0.613770 0.315186
0.939453 0.613770 0.315186
0.000000 0.734375 0.315186
0.142456 0.734375 0.315186
0.315186 0.734375 0.315186
0.474609 0.734375 0.315186
0.613770 0.734375 0.315186
0.734375 0.734375 0.315186
0.842773 0.734375 0.315186
0.939453 0.734375 0.315186
0.000000 0.842773 0.315186
0.142456 0.842773 0.315186
0.315186 0.842773 0.315186
0.474609 0.842773 0.315186
0.613770 0.842773 0.315186
0.734375 0.842773 0.315186
0.842773 0.842773 0.315186
0.939453 0.842773 0.315186
0.000000 0.939453 0.315186
0.142456 0.939453 0.315186
0.315186 0.939453 0.315186
0.474609 0.939453 0.315186
0.613770 0.939453 0.315186
0.734375 0.939453 0.315186
0.842773 0.939453 0.315186
0.939453 0.939453 0.315186
0.000000 0.000000 0.474365
0.142456 0.000000 0.474365
0.315186 0.000000 0.474365
0.474609 0.000000 0.474365
0.613770 0.000000 0.474365
0.734375 0.000000 0.474365
0.842773 0.000000 0.474365
0.939453 0.000000 0.474365
0.000000 0.142334 0.474365
0.142456 0.142334 0.474365
0.315186 0.142334 0.474365
0.474609 0.142334 0.474365
0.613770 0.142456 0.474365
0.734375 0.142456 0.474365
0.842773 0.142456 0.474365
0.939453 0.142456 0.474365
0.000000 0.315186 0.474365
0.142456 0.315186 0.474365
0.315186 0.315186 0.474365
0.474609 0.315186 0.474365
0.613770 0.315186 0.474365
0.734375 0.315186 0.474365
0.842773 0.315186 0.474365
0.939453 0.315186 0.474365
0.000000 0.474609 0.474365
0.142456 0.474609 0.474365
0.315186 0.474609 0.474365
0.474609 0.474609 0.474365
0.613770 0.474609 0.474365
0.734375 0.474609 0.474365
0.842773 0.474609 0.474365
0.939453 0.474609 0.474365
0.000000 0.613281 0.474365
0.142456 0.613281 0.474365
0.315186 0.613281 0.474365
0.474609 0.613281 0.474365
0.613770 0.613281 0.474365
0.734375 0.613281 0.474365
0.842773 0.613281 0.474365
0.939453 0.613770 0.474365
0.000000 0.734375 0.474365
0.142456 0.734375 0.474365
0.315186 0.734375 0.474365
0.474609 0.734375 0.474365
0.613770 0.734375 0.474365
0.734375 0.734375 0.474365
0.842773 0.734375 0.474365
0.939453 0.734375 0.474365
0.000000 0.842773 0.474365
0.142456 0.842773 0.474365
0.315186 0.842773 0.474365
0.474609 0.842773 0.474365
0.613770 0.842773 0.474365
0.734375 0.842773 0.474365
0.842773 0.842773 0.474365
0.939453 0.842773 0.474365
0.000000 0.939453 0.474365
0.142456 0.939453 0.474365
0.315186 0.939453 0.474365
0.474609 0.939453 0.474365
0.613770 0.939453 0.474365
0.734375 0.939453 0.474365
0.842773 0.939453 0.474365
0.939453 0.939453 0.474365
0.000000 0.000000 0.613281
0.142456 0.000000 0.613281
0.315430 0.000000 0.613281
0.474609 0.000000 0.613281
0.613770 0.000000 0.613281
0.734375 0.000000 0.613281
0.842773 0.000000 0.613281
0.939453 0.000000 0.613281
0.000000 0.142334 0.613281
0.142456 0.142334 0.613281
0.315430 0.142334 0.613281
0.474609 0.142334 0.613281
0.613770 0.142334 0.613281
0.734375 0.142456 0.613281
0.842773 0.142456 0.613281
0.939453 0.142456 0.613281
0.000000 0.315186 0.613281
0.142456 0.315186 0.613281
0.315430 0.315186 0.613281
0.474609 0.315186 0.613281
0.613770 0.315186 0.613281
0.734375 0.315186 0.613281
0.842773 0.315186 0.613281
0.939453 0.315186 0.613281
0.000000 0.474609 0.613281
0.142456 0.474609 0.613281
0.315430 0.474609 0.613281
0.474609 0.474609 0.613281
0.613770 0.474609 0.613281
0.734375 0.474609 0.613281
0.842773 0.474609 0.613281
0.939453 0.474609 0.613281
0.000000 0.613281 0.613281
0.142456 0.613281 0.613281
0.315430 0.613281 0.613281
0.474609 0.613281 0.613281
0.613770 0.613281 0.613281
0.734375 0.613281 0.613281
0.842773 0.613281 0.613281
0.939453 0.613281 0.613281
0.000000 0.734375 0.613281
0.142456 0.734375 0.613281
0.315430 0.734375 0.613281
0.474609 0.734375 0.613281
0.613770 0.734375 0.613281
0.734375 0.734375 0.613281
0.842773 0.734375 0.613281
0.939453 0.734375 0.613281
0.000000 0.842773 0.613281
0.142456 0.842773 0.613281
0.315430 0.842773 0.613281
0.474609 0.842773 0.613281
0.613770 0.842773 0.613281
0.734375 0.842773 0.613281
0.842773 0.842773 0.613281
0.939453 0.842773 0.613281
0.000000 0.939453 0.613281
0.142456 0.939453 0.613281
0.315430 0.939453 0.613281
0.474609 0.939453 0.613281
0.613770 0.939453 0.613281
0.734375 0.939453 0.613281
0.842773 0.939453 0.613281
0.939453 0.939453 0.613281
0.000001 0.000000 0.734375
0.142578 0.000000 0.734375
0.315430 0.000000 0.734375
0.474609 0.000000 0.734375
0.613770 0.000000 0.734375
0.734375 0.000000 0.734375
0.842773 0.000000 0.734375
0.939453 0.000000 0.734375
0.000001 0.142334 0.734375
0.142578 0.142334 0.734375
0.315430 0.142334 0.734375
0.474609 0.142334 0.734375
0.613770 0.142334 0.734375
0.734375 0.142334 0.734375
0.842773 0.142456 0.734375
0.939453 0.142456 0.734375
0.000001 0.315186 0.734375
0.142578 0.315186 0.734375
0.315430 0.315186 0.734375
0.474609 0.315186 0.734375
0.613770 0.315186 0.734375
0.734375 0.315186 0.734375
0.842773 0.315186 0.734375
0.939453 0.315186 0.734375
0.000001 0.474609 0.734375
0.142578 0.474609 0.734375
0.315430 0.474609 0.734375
0.474609 0.474609 0.734375
0.613770 0.474609 0.734375
0.734375 0.474609 0.734375
0.842773 0.474609 0.734375
0.939453 0.474609 0.734375
0.000001 0.613281 0.734375
0.142578 0.613281 0.734375
0.315430 0.613281 0.734375
0.474609 0.613281 0.734375
0.613770 0.613281 0.734375
0.734375 0.613281 0.734375
0.842773 0.613281 0.734375
0.939453 0.613281 0.734375
0.000001 0.734375 0.734375
0.142578 0.734375 0.734375
0.315430 0.734375 0.734375
0.474609 0.734375 0.734375
0.613770 0.734375 0.734375
0.734375 0.734375 0.734375
0.842773 0.734375 0.734375
0.939453 0.734375 0.734375
0.000001 0.842773 0.734375
0.142578 0.842773 0.734375
0.315430 0.842773 0.734375
0.474609 0.842773 0.734375
0.613770 0.842773 0.734375
0.734375 0.842773 0.734375
0.842773 0.842773 0.734375
0.939453 0.842773 0.734375
0.000001 0.939453 0.734375
0.142578 0.939453 0.734375
0.315430 0.939453 0.734375
0.474609 0.939453 0.734375
0.613770 0.939453 0.734375
0.734375 0.939453 0.734375
0.842773 0.939453 0.734375
0.939453 0.939453 0.734375
0.000001 0.000000 0.842773
0.142578 0.000000 0.842773
0.315430 0.000000 0.842773
0.474609 0.000000 0.842773
0.613770 0.000000 0.842773
0.734375 0.000000 0.842773
0.842773 0.000000 0.842773
0.939453 0.000000 0.842773
0.000001 0.142334 0.842773
0.142578 0.142334 0.842773
0.315430 0.142334 0.842773
0.474609 0.142334 0.842773
0.613770 0.142334 0.842773
0.734375 0.142334 0.842773
0.842773 0.142334 0.842773
0.939453 0.142456 0.842773
0.000001 0.315186 0.842773
0.142578 0.315186 0.842773
0.315430 0.315186 0.842773
0.474609 0.315186 0.842773
0.613770 0.315186 0.842773
0.734375 0.315186 0.842773
0.842773 0.315186 0.842773
0.939453 0.315186 0.842773
0.000001 0.474609 0.842773
0.142578 0.474609 0.842773
0.315430 0.474609 0.842773
0.474609 0.474609 0.842773
0.613770 0.474609 0.842773
0.734375 0.474609 0.842773
0.842773 0.474609 0.842773
0.939453 0.474609 0.842773
0.000001 0.613281 0.842773
0.142578 0.613281 0.842773
0.315430 0.613281 0.842773
0.474609 0.613281 0.842773
0.613770 0.613281 0.842773
0.734375 0.613281 0.842773
0.842773 0.613281 0.842773
0.939453 0.613281 0.842773
0.000001 0.734375 0.842773
0.142578 0.734375 0.842773
0.315430 0.734375 0.842773
0.474609 0.734375 0.842773
0.613770 0.734375 0.842773
0.734375 0.734375 0.842773
0.842773 0.734375 0.842773
0.939453 0.734375 0.842773
0.000001 0.842773 0.842773
0.142578 0.842773 0.842773
0.315430 0.842773 0.842773
0.474609 0.842773 0.842773
0.613770 0.842773 0.842773
0.734375 0.842773 0.842773
0.842773 0.842773 0.842773
0.939453 0.842773 0.842773
0.000001 0.939453 0.842773
0.142578 0.939453 0.842773
0.315430 0.939453 0.842773
0.474609 0.939453 0.842773
0.613770 0.939453 0.842773
0.734375 0.939453 0.842773
0.842773 0.939453 0.842773
0.939453 0.939453 0.842773
0.000001 0.000000 0.939453
0.142578 0.000000 0.939453
0.315430 0.000000 0.939453
0.474854 0.000000 0.939453
0.613770 0.000000 0.939453
0.734375 0.000000 0.939453
0.842773 0.000000 0.939453
0.939453 0.000000 0.939453
0.000001 0.142334 0.939453
0.142578 0.142334 0.939453
0.315430 0.142334 0.939453
0.474854 0.142334 0.939453
0.613770 0.142334 0.939453
0.734375 0.142334 0.939453
0.842773 0.142334 0.939453
0.939453 0.142334 0.939453
0.000001 0.315186 0.939453
0.142578 0.315186 0.939453
0.315430 0.315186 0.939453
0.474854 0.315186 0.939453
0.613770 0.315186 0.939453
0.734375 0.315186 0.939453
0.842773 0.315186 0.939453
0.939453 0.315186 0.939453
0.000001 0.474609 0.939453
0.142578 0.474609 0.939453
0.315430 0.474609 0.939453
0.474854 0.474609 0.939453
0.613770 0.474609 0.939453
0.734375 0.474609 0.939453
0.842773 0.474609 0.939453
0.939453 0.474609 0.939453
0.000001 0.613281 0.939453
0.142578 0.613281 0.939453
0.315430 0.613281 0.939453
0.474854 0.613281 0.939453
0.613770 0.613281 0.939453
0.734375 0.613281 0.939453
0.842773 0.613281 0.939453
0.939453 0.613281 0.939453
0.000001 0.734375 0.939453
0.142578 0.734375 0.939453
0.315430 0.734375 0.939453
0.474854 0.734375 0.939453
0.613770 0.734375 0.939453
0.734375 0.734375 0.939453
0.842773 0.734375 0.939453
0.939453 0.734375 0.939453
0.000001 0.842773 0.939453
0.142578 0.842773 0.939453
0.315430 0.842773 0.939453
0.474854 0.842773 0.939453
0.613770 0.842773 0.939453
0.734375 0.842773 0.939453
0.842773 0.842773 0.939453
0.939453 0.842773 0.939453
0.000001 0.939453 0.939453
0.142578 0.939453 0.939453
0.315430 0.939453 0.939453
0.474854 0.939453 0.939453
0.613770 0.939453 0.939453
0.734375 0.939453 0.939453
0.842773 0.939453 0.939453
0.939453 0.939453 0.939453
